!!!COM: Claude Debussy
!!!CNT: Francais
!!!TXO: Francais
!!!OPR: Ariettes Oublie/es
!!!ONM: No. 3
!!!OTL: L'Ombre des Arbres
!!!LYR: Paul Verlaine
!!!ENC: Jacob Pegg
!!!YOR: Claude Debussy: Songs 1880-1904, Edited by Rita Benton
!!!YOR: New York: Dover publications, inc., 1981
!!!YOR: ISBN 0-486-24131-9
!!!ODT: 1885/
!!NB: Vocal melody and text only encoded.
!!NB: First instance of melodic material only encoded.
**kern	**silbe
*clef G2	*
*k[f#c#g#d#a#e#b#]	*
*M3/4	*
*MM[lento]	*
!! created: 6/26/03 14:48
!! last edited: 7/10/03 11:33
!! time (min) : input notes 15, words 5. check : notes 6, words 4.
!! total edit time: about 35 min.
=1	=1
2.r	.
=2	=2
4r	.
8r	.
{8e#	{L'om-
8e#	-bre
8e#	des
=3	=3
[4e#	ar-
8e#]	-bres
8e#	dans
8g#	la
8a#	ri-
=4	=4
(12bn	-vie\-
12ddn	-re em-
12bn)	-bru-
4bn	-me/-
4gn}	-e}
=5	=5
8r	.
{[8fn	{Meurt
(12fn]	|
12fn	com-
12fn)	-me
(12en	de
12en	la
12en)	fu-
=6	=6
[4d#	-me/-
8d#]}	-e,}
8r	.
8r	.
{(8d#	{Tan-
=7	=7
8dd#	-dis
8a#	qu'en
4a#)	l'air,
4f#	par-
=8	=8
(12d#	-mi
12en	les
12f#	ra-
12g#	-mu-
12f#	-res
12g#	re/-
[8bn	-el-
16bn])}	-les,}
16r	.
=9	=9
8r	.
{(8bn	{Se
4.ff#	plai-
8een)	-gnent
=10	=10
12cc#	les
12bn	tour-
12cc#	-te-
[4f#	-rel-
8f#]}	-les.}
8r	.
=11	=11
2r	.
4r	.
=12	=12
4r	.
4r	.
{4e#	{Com-
=13	=13
4e#	-bien,
8r	.
(8e#	o^
8g#	vo-
8a#	-ya-
=14	=14
2bn	-geur,
4gn)}	|}
=15	=15
{(4fn	{ce
8fn	pa-
8fn	-y-
8en	-sa-
8en	-ge
=16	=16
[2d#)	ble^-
8d#]}	-me}
8r	.
=17	=17
{(2bn	{Te
8a#	mi-
8g#	|
=18	=18
4.bn)	-ra
(8bn	ble^-
8cc#	-me
8dd#)	toi~
=19	=19
([2.dd#	~me^-
=20	=20
4dd#]	|
4ddn	|
4cc#)}	-me,}
=21	=21
8r	.
{(4aa#	{Et
8ff#	que
12cc#	tris-
12a#	-tes
12f#)	pleu-
=22	=22
[4d#	-raient
(12d#]	|
12d#	dans
12g#	les
12e#	hau-
12g#	-tes
12a#)	feuil-
=23	=23
[4a#	-le/-
8a#]}	-es,}
{(8f#	{Tes
8a#	es-
8cc#	-pe/-
=24	=24
4een	-ran-
4cc#)	-ces
8.r	.
(16a#	no-
=25	=25
4ff#	-ye/-
4een)}	-es!}
8.r	.
{16een	{no-
=26	=26
4aa#	-ye/-
4ggn}	-es!}
4r	.
*-	*-
